!!!!SEGMENT: pl-sa--179-a-v-9--001_anonim--msza-kyrie.krn
!!!cenid: 17xx:1639
!!!COM: Anonim
!!!COM-rismID: pe30004985
!!!CDT:
!!!CNT:
!!!OPR: Msza
!!!OTL: Kyrie
!!!OMV: 001
!!!PDT:
!!!AGN: Sacred; Mass
!!!SMS-siglum: PL-SA
!!!SMS-shelfmark: 179/A V 9
!!!SMS-shelfwork: 001-001 M
!!!SMS-variant:
!!!SMS-altvar:
!!!NIFC-rismSourceID: 1001035886
!!!NIFC-islandoraID:
!!!URL-pdf-islandora:
!!!URL-scan: https://bc.bdsandomierz.pl/dlibra/publication/1514/edition/1482/content @EN{Scan in the Sandomierz Diocese Digital Library} @PL{Skany w portalu Cyfrowa Biblioteka Diecezjalna w Sandomierzu}
!!!ONB-nifc: UWAGA: części Mszy: 1. Kyrie, 2. Et in terra, 3. Patrem, 4. Sanctus, 5. Agnus Dei
!!!AIN: 1 alto 1 bass 1 soprn 2 violn
!!!key:
**kern	**kern	**dynam	**kern	**text	**kern	**text	**kern	**text
*group2	*group2	*	*group1	*	*group1	*	*group1	*
*part5	*part4	*part4	*part3	*part3	*part2	*part2	*part1	*part1
*staff5	*staff4	*	*staff3	*staff3	*staff2	*staff2	*staff1	*staff1
*IGacmp	*IGacmp	*	*IGcoro	*	*IGcoro	*	*IGcoro	*
*ICstr	*ICstr	*	*ICvox	*	*ICvox	*	*ICvox	*
*Ivioln	*Ivioln	*	*Ibass	*	*Ialto	*	*Isoprn	*
*I"Violino 2do.	*I"Violino Imo.	*	*I"Baſ.o	*	*I"Alto.	*	*I"Canto.	*
*I'vl 2	*I'vl 1	*	*I'B	*	*I'A	*	*I'S	*
*clefG2	*clefG2	*	*clefF4	*	*clefC3	*	*clefC1	*
*k[f#c#]	*k[c#f#]	*	*k[f#c#]	*	*k[f#c#]	*	*k[f#c#]	*
*D:	*D:	*	*D:	*	*D:	*	*D:	*
*M4/4	*M4/4	*	*M4/4	*	*M4/4	*	*M4/4	*
*met(c)	*met(c)	*	*met(C.)	*	*met(C.)	*	*met(C.)	*
*2\right	*2\right	*	*2\right	*	*2\right	*	*2\right	*
=1	=1	=1	=1	=1	=1	=1	=1	=1
!LO:TX:t=Adagio:rj:B	!	!	!	!	!	!	!	!
!LO:TX:t=P:problem=all\right middle or left	!LO:TX:t=Adagio:rj:B	!	!LO:TX:t=Adagio:rj:B	!	!LO:TX:t=Adagio:rj:B	!	!LO:TX:t=P:problem=all\right middle or left	!
!LO:TX:t=P:problem=mixed beam	!LO:TX:t=P:problem=all\right middle or left	!	!LO:TX:t=P:problem=all\right middle or left	!	!LO:TX:t=P:problem=all\right middle or left	!	!LO:TX:a:B:t=Adagio	!
8f#/L	8d/L	.	8.D/	Ky-	8.f#\	Ky-	8.dd\	Ky-
8dd\	8f#/	.	.	.	.	.	.	.
.	.	.	16D/	-ri-	16f#\	-ri-	16dd\	-ri-
8dd\	8a/	.	4D/	-e	4f#\	-e	4dd\	-e
8a\J	8dd/J	.	.	.	.	.	.	.
*	*	*	*	*ij	*	*ij	*	*ij
8g\L	8b/L	.	8.G\	Ky-	8.g\	Ky-	8.b\	Ky-
8b\	8g/	.	.	.	.	.	.	.
.	.	.	16G\	-ri-	16g\	-ri-	16b\	-ri-
8b\	8b/	.	4G\	-e	4g\	-e	4b\	-e
8g\J	8dd/J	.	.	.	.	.	.	.
=2	=2	=2	=2	=2	=2	=2	=2	=2
!LO:TX:t=P:problem=mixed beam	!	!	!	!	!	!	!	!
8e/L	8cc#\L	.	8.A\	Ky-	8.e\	Ky-	8.cc#\	Ky-
8cc#\	8gg\	.	.	.	.	.	.	.
.	.	.	16AA/	-ri-	16e\	-ri-	16cc#\	-ri-
!	!	!	!	!	!LO:N:vis=8	!	!	!
8ee\	8gg\	.	4AA/	-e	4e\	-e	4cc#\	-e
*	*	*	*	*Xij	*	*Xij	*	*Xij
8cc#\J	8gg\J	.	.	.	.	.	.	.
!LO:TX:t=P:problem=mixed beam	!	!	!	!	!	!	!	!
8dd\L	8gg\L	.	8r	.	8r	.	8r	.
8f#/	8dd\	.	8BB/	e-	8f#\	e-	8dd\	e-
8f#/	8dd\	.	8BB/	-lei-	8f#\	-lei-	8dd\	-lei-
8f#/J	8dd\J	.	16BB/	-son	16f#\	-son	16dd\	-son
.	.	.	16BB/	e-	16f#\	e-	16dd\	e-
=3	=3	=3	=3	=3	=3	=3	=3	=3
!LO:TX:t=P:problem=mixed beam	!	!	!	!	!	!	!	!
8g#X/L	8dd\L	.	2BB/	-lei-	2g#X\	-lei-	2dd\	-lei-
8dd\	8g#X\	.	.	.	.	.	.	.
8dd\	8g#\	.	.	.	.	.	.	.
8dd\J	8g#\J	.	.	.	.	.	.	.
2cc#\	2a/	.	2AA/	-son	2e\	-son	2cc#\	-son
=4||	=4||	=4||	=4||	=4||	=4||	=4||	=4||	=4||
*M4/4	*M4/4	*	*M4/4	*	*M4/4	*	*M4/4	*
*met(C.)	*met(c)	*	*met(C.)	*	*met(C.)	*	*met(C.)	*
!LO:TX:t=Allo:B:rj	!LO:TX:t=allo:B:rj	!	!LO:TX:t=allo:B	!	!LO:TX:t=allo	!	!LO:TX:a:B:t=allo	!
4dd\	4d/ 4a 4ff#	.	1r	.	1r	.	1r	.
4cc#\	4ee\	.	.	.	.	.	.	.
8dd\L	8dd\L	.	.	.	.	.	.	.
8b\	8gg\	.	.	.	.	.	.	.
8a\	8ff#\	.	.	.	.	.	.	.
8g\J	8ee\J	.	.	.	.	.	.	.
=5	=5	=5	=5	=5	=5	=5	=5	=5
4f#/	4dd\	.	4D/	Ky-	4f#\	Ky-	4dd\	Ky-
4gg\	4ee\	.	4AA/	-ri-	4a\	-ri-	4ee\	-ri-
!	!	!	!	!	!LO:LB:g=original	!	!	!
4ff#\	8dd\	.	8D/	-e	8a\	-e	8ff#\	-e
.	8r	.	8F#\	e-	8a\	e-	8a\	e-
4r	4r	.	8G\	-lei-	8g\	-lei-	8b\	-lei-
!	!	!	!LO:LB:g=original	!	!	!	!LO:LB:g=original	!
.	.	.	16E\	-son	16g\	-son	16cc#\	-son
.	.	.	16E\	e-	16g\	e-	16cc#\	e-
=6	=6	=6	=6	=6	=6	=6	=6	=6
8f#/L	16dd/LL	.	4D/	-lei-	4f#\	-lei-	4dd\	-lei-
.	16a/	.	.	.	.	.	.	.
8f#/	16f#/	.	.	.	.	.	.	.
.	16d/JJ	.	.	.	.	.	.	.
8f#/	16dd/LL	.	4D/	-son	4f#\	-son	4dd\	-son
.	16a/	.	.	.	.	.	.	.
8f#/J	16f#/	.	.	.	.	.	.	.
.	16d/JJ	.	.	.	.	.	.	.
8g/	8b\	.	8D/	Ky-	8g\	Ky-	8b\	Ky-
4g/	4b\	.	8D/	-ri-	8g\	-ri-	8b\	-ri-
.	.	.	8D/	-e	8g\	-e	8b\	-e
8e/	8cc#\	.	8D/	e-	8g\	e-	8cc#\	e-
=7	=7	=7	=7	=7	=7	=7	=7	=7
!	!LO:LB:g=original	!	!	!	!	!	!	!
16f#/LL	16dd\LL	.	4D/	-lei-	4f#\	-lei-	8.dd\L	-lei-
16f#/	16a\	.	.	.	.	.	.	.
16f#/	16a\	.	.	.	.	.	.	.
16f#/JJ	16a\JJ	.	.	.	.	.	16a\Jk	.
!LO:TX:t=P:problem=mixed beam	!	!	!	!	!	!	!	!
16f#/LL	16dd\LL	.	4D/	-son	4f#\	-son	4a\	-son
16dd\	16ff#\	.	.	.	.	.	.	.
16dd\	16ff#\	.	.	.	.	.	.	.
16dd\JJ	16ff#\JJ	.	.	.	.	.	.	.
*	*	*	*	*	*	*ij	*	*
!LO:LB:g=original	!LO:TX:t=P:problem=mixed beam	!	!	!	!	!	!	!
16ee\LL	16gg\LL	.	4.D/	Ky-	4a\	Ky-	4gg\	Ky-
16gg\	16a/	.	.	.	.	.	.	.
16gg\	16a/	.	.	.	.	.	.	.
16ee\JJ	16a/JJ	.	.	.	.	.	.	.
!	!LO:TX:t=P:problem=mixed beam	!	!	!	!	!	!	!
16dd\LL	16ff#\LL	.	.	.	4a\	-ri-	4ff#\	-ri-
16ff#\	16a/	.	.	.	.	.	.	.
16ff#\	16a/	.	8D/	-ri-	.	.	.	.
16dd\JJ	16a/JJ	.	.	.	.	.	.	.
=8	=8	=8	=8	=8	=8	=8	=8	=8
16cc#\LL	16ee\LL	.	8A\	-e	8a\	-e	8ee\	-e
16cc#\	16ee\	.	.	.	.	.	.	.
16dd\	16ff#\	.	8A\	e-	8a\	e-	8ff#\	e-
16dd\JJ	16ff#\JJ	.	.	.	.	.	.	.
16cc#\LL	16ee\LL	.	4A\	-lei-	4a\	-lei-	(8ee\L	-lei-
16cc#\	16ee\	.	.	.	.	.	.	.
16b\	16dd\	.	.	.	.	.	8dd\J)	.
16b\JJ	16dd\JJ	.	.	.	.	.	.	.
8a/L	16cc#\LL	.	4AA/	-son	4a\	-son	4ee\	-son
*	*	*	*	*	*	*Xij	*	*
.	16aa\	.	.	.	.	.	.	.
8c#/	16ee\	.	.	.	.	.	.	.
.	16cc#\JJ	.	.	.	.	.	.	.
8c#/J	8a/	.	4r	.	4r	.	8r	.
*	*	*	*	*	*	*	*	*ij
8r	8r	.	.	.	.	.	16dd\LL	e-
.	.	.	.	.	.	.	16cc#\JJ	.
=9	=9	=9	=9	=9	=9	=9	=9	=9
8r	8r	.	8r	.	8r	.	8dd\	-lei-
16b/LL	16dd\LL	.	8D\	e-	16b\LL	e-	8e/	-son
16a/JJ	16cc#\JJ	.	.	.	16a\JJ	.	.	.
!	!LO:TX:t=P:problem=mixed beam	!	!	!	!	!	!	!
8b\L	8dd\L	.	8E\	-lei-	8b\	-lei-	8r	.
8b\J	8d/J	.	8E\	-son	8g#X\	-son	16dd\LL	e-
.	.	.	.	.	.	.	16cc#\JJ	.
!	!	!	!	!	!LO:LB:g=original	!	!	!
8r	8r	.	8r	.	8r	.	8dd\	-lei-
*	*	*	*	*ij	*	*ij	*	*
16b\LL	16dd\LL	.	8E\	e-	16b\LL	e-	8e/	-son
*	*	*	*	*	*	*	*	*Xij
16a\JJ	16cc#\JJ	.	.	.	16a\JJ	.	.	.
!	!LO:TX:t=P:problem=mixed beam	!	!	!	!	!	!	!
8b\L	8dd\L	.	8E\	-lei-	8b\	-lei-	8r	.
16dd\L	8d/J	.	8E\	-son	8g#X\	-son	16dd\LL	e-
*	*	*	*	*Xij	*	*Xij	*	*
16b\JJ	.	.	.	.	.	.	16b\JJ	.
=10	=10	=10	=10	=10	=10	=10	=10	=10
!	!	!	!	!	!	!	!LO:LB:g=original	!
8cc#\L	16r	.	8r	.	8r	.	8cc#\L	-lei-
.	16ee\LL	.	.	.	.	.	.	.
!	!	!	!	!	!LO:SIC:v:s=16g#\	!	!	!
16b\L	16ee\	.	16E\	Ky-	16g\	Ky-	8b\J	.
!	!	!	!	!	!LO:SIC:v:s=16g#\	!	!	!
16g#X\JJ	16dd\JJ	.	16E\	-ri-	16g\	-ri-	.	.
!	!	!	!LO:LB:g=original	!	!	!	!	!
8a\L	16cc#\LL	.	8F#\	-e	8a\	-e	8a\	-son
.	16a\	.	.	.	.	.	.	.
8b\J	16dd\	.	8D\	e-	8f#\	e-	8dd\	e-
.	16cc#\JJ	.	.	.	.	.	.	.
8b\	16dd\LL	.	8E\	-lei-	2e\	-lei-	8dd\L	-lei-
.	16b\	.	.	.	.	.	.	.
4a/	16cc#\	.	16AA/	-son	.	.	8cc#;\J	.
.	16a\JJ	.	16AA/	e-	.	.	.	.
.	16b/LL	.	4E\	-lei-	.	.	4b\	.
.	16e/	.	.	.	.	.	.	.
8g#/	16ee/	.	.	.	.	.	.	.
.	16dd/JJ	.	.	.	.	.	.	.
=11	=11	=11	=11	=11	=11	=11	=11	=11
*	*Xbrackettup	*	*	*	*	*	*	*
!LO:TUP:a:problem=klamra łukowa	!	!	!	!	!	!	!	!
24a\LL	24cc#\LL	.	4AA/	-son	4e\	-son	4cc#\	-son
24b\	24dd\	.	.	.	.	.	.	.
24cc#\JJ	24ee\	.	.	.	.	.	.	.
16cc#\LL	16ee\	.	.	.	.	.	.	.
16cc#\JJ	16ee\JJ	.	.	.	.	.	.	.
16cc#\LL	16ee\LL	.	4r	.	4r	.	4r	.
16dd\	16ff#\	.	.	.	.	.	.	.
16cc#\	16ee\	.	.	.	.	.	.	.
16b\JJ	16dd\JJ	.	.	.	.	.	.	.
!	!LO:TUP:a:problem=klamra łukowa	!	!	!	!	!	!	!
!LO:TUP:a:problem=klamra łukowa	!LO:LB:g=original	!	!	!	!	!	!	!
24a\LL	24cc#/LL	.	2r	.	2r	.	2r	.
24b\	24dd\	.	.	.	.	.	.	.
24cc#\JJ	24ee\JJ	.	.	.	.	.	.	.
16cc#\LL	16ee\LL	.	.	.	.	.	.	.
16cc#\JJ	16ee\JJ	.	.	.	.	.	.	.
!	!LO:TX:t=P:problem=mixed beam	!	!	!	!	!	!	!
16cc#\LL	16ee\LL	.	.	.	.	.	.	.
16cc#\	16f#/	.	.	.	.	.	.	.
16cc#\	16f#/	.	.	.	.	.	.	.
16cc#\JJ	16ee\JJ	.	.	.	.	.	.	.
=12	=12	=12	=12	=12	=12	=12	=12	=12
!LO:LB:g=original	!	!	!	!	!	!	!	!
16b\LL	16dd\LL	.	1r	.	0r	.	1r	.
16cc#\	16cc#\	.	.	.	.	.	.	.
16dd\	16b\	.	.	.	.	.	.	.
16cc#\JJ	16a#X\JJ	.	.	.	.	.	.	.
16b\LL	16b\LL	.	.	.	.	.	.	.
16a#X\	16cc#\	.	.	.	.	.	.	.
16b\	16dd\	.	.	.	.	.	.	.
16cc#\JJ	16ee\JJ	.	.	.	.	.	.	.
8a#X/L	16ff#\LL	.	.	.	.	.	.	.
.	16ff#\	.	.	.	.	.	.	.
8a#/J	16cc#\	.	.	.	.	.	.	.
.	16cc#\JJ	.	.	.	.	.	.	.
4a#/	4f#/	.	.	.	.	.	.	.
=13	=13	=13	=13	=13	=13	=13	=13	=13
!	!	!	!LO:TX:t=P:problem=mixed beam	!	!	!	!	!
2r	2r	.	8B\L	Chri-	.	.	4dd\	Chri-
.	.	.	16BB/L	.	.	.	.	.
.	.	.	16C#/JJ	.	.	.	.	.
.	.	.	16D\LL	-ste	.	.	8dd\	-ste
.	.	.	16C#\JJ	.	.	.	.	.
.	.	.	16D\LL	e-	.	.	8dd\	e-
.	.	.	16E\JJ	.	.	.	.	.
!	!	!LO:DY:a:t=pia	!	!	!	!	!	!
4a#X/	4cc#\	p	8F#\	-lei-	.	.	8cc#\L	-le-
.	.	.	8F#\	-son	.	.	8dd\J	.
4r	4r	.	8r	.	.	.	16ee\LL	-son
.	.	.	.	.	.	.	16dd\JJ	.
.	.	.	8F#\	e-	.	.	16ee\LL	e-
.	.	.	.	.	.	.	16cc#\JJ	.
=14	=14	=14	=14	=14	=14	=14	=14	=14
4b/	4dd\	.	8F#\	-lei-	1r	.	16dd\LL	-lei-
.	.	.	.	.	.	.	16ee\J	.
.	.	.	8F#\	-son	.	.	8ff#\J	.
4r	4r	.	4r	.	.	.	16ff#\LL	-son
.	.	.	.	.	.	.	16ee\JJ	.
.	.	.	.	.	.	.	16ff#\LL	e-
.	.	.	.	.	.	.	16dd\JJ	.
8f#/L	8f#/L	.	2r	.	.	.	16cc#\LL	-lei-
.	.	.	.	.	.	.	16dd\J	.
8f#/	8f#/	.	.	.	.	.	8ee\J	.
8A#X/	8A#X/	.	.	.	.	.	8ee\	-son
8B/J	8B/J	.	.	.	.	.	8dd\	e-
=15	=15	=15	=15	=15	=15	=15	=15	=15
4f#/	4f#/	.	2r	.	2r	.	4dd\	-lei-
4f#/	4f#/	.	.	.	.	.	4cc#\	-son
!	!	!LO:DY:a:t=f.	!	!	!	!	!	!
16dd\LL	16dd\LL	f	(8B\L	Chri-	8f#\L	Chri-	8dd\L	Chri-
16dd\	16ff#\	.	.	.	.	.	.	.
16cc#\	16ff#\	.	8F#\J)	.	8a#X\J	.	16ff#\L	.
16cc#\JJ	16ee\JJ	.	.	.	.	.	16ee\JJ	.
16b\LL	16dd\LL	.	8G\	-ste	8b\	-ste	8dd\	-ſte
16b\	16ee\	.	.	.	.	.	.	.
16cc#\	16ee\	.	8E\	e-	8g\	e-	8ee\	e-
16cc#\JJ	16ee\JJ	.	.	.	.	.	.	.
=16	=16	=16	=16	=16	=16	=16	=16	=16
!	!	!	!LO:LB:g=original	!	!	!	!LO:LB:g=original	!
16b\LL	16dd\LL	.	2F#\	-lei-	2f#\	-lei-	(4dd\	-lei-
16b\	16ff#\	.	.	.	.	.	.	.
16dd\	16ff#\	.	.	.	.	.	.	.
16b\JJ	16dd\JJ	.	.	.	.	.	.	.
!	!LO:TX:t=P:problem=mixed beam	!	!	!	!	!	!	!
16a#X\LL	16cc#\LL	.	.	.	.	.	4cc#\)	.
16a#\	16ff#\	.	.	.	.	.	.	.
16a#\	16ff#\	.	.	.	.	.	.	.
16cc#\JJ	16a#X/JJ	.	.	.	.	.	.	.
16r	16r	.	4BB/	-son	4f#\	-son	4b\	-son
16b\LL	16b\LL	.	.	.	.	.	.	.
16dd\	16dd\	.	.	.	.	.	.	.
16ff#\JJ	16ff#\JJ	.	.	.	.	.	.	.
16bb\LL	16bb\LL	.	4r	.	4r	.	4r	.
16ff#\	16ff#\	.	.	.	.	.	.	.
16dd\	16dd\	.	.	.	.	.	.	.
16b\JJ	16b\JJ	.	.	.	.	.	.	.
=17	=17	=17	=17	=17	=17	=17	=17	=17
!	!LO:LB:g=original	!	!	!	!	!	!	!
16dd\LL	16bb\LL	.	8G#X\	Ky-	8e\	Ky-	8dd\	Ky-
16b\	16dd\	.	.	.	.	.	.	.
16b\	16dd\	.	8E\	-ri-	8e\	-ri-	8dd\	-ri-
16b\JJ	16dd\JJ	.	.	.	.	.	.	.
16an\LL	16cc#\LL	.	8A\	-e	8e\	-e	8cc#\	-e
16cc#\	16aa\	.	.	.	.	.	.	.
16cc#\	16aa\	.	8A\J	e-	8e\	e-	8cc#\	e-
16cc#\JJ	16aa\JJ	.	.	.	.	.	.	.
!	!	!	!	!	!LO:LB:g=original	!	!	!
16cc#\LL	16bb\LL	.	8G#\	-lei-	8e\	-lei-	8dd\	-lei-
16b\	16dd\	.	.	.	.	.	.	.
16b\	16dd\	.	16E\	-son	16e\	-son	16dd\	-son
16b\JJ	16dd\JJ	.	16E\	e-	16e\	e-	16dd\	e-
16a\LL	16cc#\LL	.	8A\	-lei-	8e\	-lei-	8cc#\	-lei-
16cc#\	16aa\	.	.	.	.	.	.	.
16cc#\	16aa\	.	8AA/	-son	8e\	-son	8cc#\	-son
16cc#\JJ	16aa\JJ	.	.	.	.	.	.	.
=18	=18	=18	=18	=18	=18	=18	=18	=18
!LO:LB:g=original	!	!	!	!	!	!	!	!
16dd\LL	16dd\LL	.	8F#\	Ky-	8d\	Ky-	8dd\	Ky-
16dd\	16a\	.	.	.	.	.	.	.
16ff#\	16dd\	.	8D\	-ri-	8f#\	-ri-	8dd\	-ri-
16dd\JJ	16ff#\JJ	.	.	.	.	.	.	.
16b\LL	16b\LL	.	8Gn\	-e	8g\	-e	8b\	-e
16b\	16dd\	.	.	.	.	.	.	.
16a\	16a\	.	8F#\	e-	8a\	e-	8a\	e-
16a\JJ	16dd\JJ	.	.	.	.	.	.	.
16g/LL	16g\LL	.	4E\	-le-	4g\	-lei-	4cc#\	-lei-
16g/	16cc#\	.	.	.	.	.	.	.
16g/	16cc#\	.	.	.	.	.	.	.
16g/JJ	16cc#\JJ	.	.	.	.	.	.	.
16f#/LL	16dd\LL	.	4D\	-i-	8.f#\L	.	4dd\	.
16dd/	16ff#\	.	.	.	.	.	.	.
16dd/	16ff#\	.	.	.	.	.	.	.
16dd/JJ	16ff#\JJ	.	.	.	16g\Jk	.	.	.
=19	=19	=19	=19	=19	=19	=19	=19	=19
8cc#\L	8ee\L	.	8AA/	-son	8a\	-son	8ee\	-son
8dd\	8ff#\	.	8r	.	8r	.	8r	.
8cc#\J	8ee\J	.	4r	.	4r	.	4r	.
4r	8r	.	.	.	.	.	.	.
.	8r	.	8r	.	8r	.	8r	.
16a/LL	16ff#\LL	.	16d\LL	e-	8a\	e-	16ff#\LL	e-
16a/JJ	16ee\JJ	.	16c#\JJ	.	.	.	16ee\JJ	.
!	!LO:TX:t=P:problem=mixed beam	!	!	!	!	!	!	!
8a/L	8ff#\L	.	8d\	-lei-	8a\	-lei-	8ff#\	-lei-
8f#/J	8d/J	.	8D/	-son	8a\	-son	8dd\	-so(n)
=20	=20	=20	=20	=20	=20	=20	=20	=20
!	!	!	!LO:LB:g=original	!	!	!	!	!
8r	8r	.	8r	.	8r	.	8r	.
*	*	*	*	*ij	*	*ij	*	*ij
16a/LL	16ff#\LL	.	16d\LL	e-	8a\	e-	16ff#\LL	e-
16a/JJ	16ee\JJ	.	16c#\JJ	.	.	.	16ee\JJ	.
!	!LO:TX:t=P:problem=mixed beam	!	!	!	!	!	!LO:LB:g=original	!
16a/LL	8ff#\L	.	8d\	-lei-	8a\	-lei-	8ff#\	-lei-
16d/	.	.	.	.	.	.	.	.
16f#/	8d/J	.	8D/	-son	8a\	-son	8dd\	-son
*	*	*	*	*Xij	*	*Xij	*	*Xij
16a/JJ	.	.	.	.	.	.	.	.
8b/L	16r	.	8r	.	8r	.	8r	.
.	16dd\LL	.	.	.	.	.	.	.
8a/	16dd\	.	16F#\	Ky-	16a\	Ky-	16dd\	Ky-
.	16dd\JJ	.	16F#\	-ri-	16a\	-ri-	16dd\	-ri-
8g/	16cc#\LL	.	8E\	-e	8g\	-e	(16cc#\LL	-e-
.	16dd\	.	.	.	.	.	16dd\JJ)	.
8f#/J	16ee\	.	8D\	e-	8a\	e-	(16ee\LL	.
.	16ff#\JJ	.	.	.	.	.	16ff#\JJ)	.
=21	=21	=21	=21	=21	=21	=21	=21	=21
!LO:TX:t=P:problem=mixed beam	!	!	!	!	!LO:LB:g=original	!	!	!
8e/L	4gg\	.	16C#/LL	-lei-	2a\	-lei-	(4gg\	-lei-
.	.	.	16AA/	.	.	.	.	.
8ee\J	.	.	16BB/	.	.	.	.	.
.	.	.	16C#/JJ	.	.	.	.	.
4dd\	4ff#\	.	16D\LL	.	.	.	4ff#\)	.
.	.	.	16E\	.	.	.	.	.
.	.	.	16F#\	.	.	.	.	.
.	.	.	16G\JJ	.	.	.	.	.
8cc#\L	16ee\LL	.	4A\	-son	4a\	-son	4ee\	-son
.	16aa\	.	.	.	.	.	.	.
8cc#\J	16cc#\	.	.	.	.	.	.	.
.	16ee\JJ	.	.	.	.	.	.	.
8cc#\L	8a\L	.	8r	.	8r	.	8r	.
16ee\L	16gg\L	.	16A\	Ky-	16a\	Ky-	16gg\	Ky-
16cc#\JJ	16ee\JJ	.	16A\	-ri-	16a\	-ri-	16ee\	-ri-
=22	=22	=22	=22	=22	=22	=22	=22	=22
!	!LO:LB:g=original	!	!	!	!	!	!	!
8dd\L	8ff#\L	.	8D\	-e	8a\	-e	8ff#\	-e
8a\	8dd\	.	8F#\	e-	8a\	e-	8dd\	e-
!	!	!	!	!	!	!	!LO:TX:t=P:problem=skreślona kreska taktowa	!
8b\	8ee\	.	(8G\L	-lei-	8g\L	-lei-	8ee\L	-lei-
!	!	!	!	!	!LO:SIC:v:s=8g\J	!	!	!
8g\J	8cc#\J	.	8A\J)	.	8f#\J	.	(8cc#\J	.
!LO:TX:t=P:problem=mixed beam	!	!	!	!	!	!	!	!
8f#/L	8dd\L	.	4D\	-son	4f#\	-son	4dd\)	-son
16gg\L	16bb\L	.	.	.	.	.	.	.
16gg\JJ	16bb\JJ	.	.	.	.	.	.	.
16ff#\LL	16aa\LL	.	8r	.	8r	.	8r	.
16ff#\	16aa\	.	.	.	.	.	.	.
*	*	*	*	*	*	*ij	*	*
16ee\	16gg\	.	8G\	e-	8g\	e-	8ee\	e-
16ee\JJ	16gg\JJ	.	.	.	.	.	.	.
=23	=23	=23	=23	=23	=23	=23	=23	=23
4dd\	4ff#\	.	4A\	-le-	4f#\	-lei-	(4a\	-lei-
4cc#\	4ee\	.	4AA/	-i-	4e\	.	4ee\)	.
!LO:TX:t=P:problem=mixed beam	!LO:TX:t=P:problem=mixed beam	!	!	!	!	!	!	!
16dd\LL	16dd\LL	.	4D/	-son	4f#\	-son	4dd\	-son
*	*	*	*	*	*	*Xij	*	*
16d/	16d/	.	.	.	.	.	.	.
16f#/	16f#/	.	.	.	.	.	.	.
16a/JJ	16a/JJ	.	.	.	.	.	.	.
8dd\L	8dd\L	.	8r	.	8r	.	8r	.
8cc#\J	8ee\J	.	8A\	e-	8a\	e-	8cc#\	e-
=24	=24	=24	=24	=24	=24	=24	=24	=24
!LO:TX:t=P:problem=mixed beam	!	!	!LO:LB:g=original	!	!	!	!	!
!LO:LB:g=original	!	!	!	!	!	!	!	!
8dd\L	8d/L 8a 8ff#	.	8D\	-lei-	8a\	-lei-	8dd\	-lei-
8d/J	8d/J 8a 8ff#	.	8D\	-son	8a\	-son	8dd\	-son
4r	4r	.	4r	.	4r	.	4r	.
2r	2r	.	2r	.	2r	.	2r	.
==	==	==	==	==	==	==	==	==
*-	*-	*-	*-	*-	*-	*-	*-	*-
!!!system-decoration: [(g1)][(g2)]
!!!RDF**kern: > = above
!!!RDF**kern: < = below
!!!ENC: Mateusz Solarz
!!!END: 2020-12-15
!!!ENC: Krzysztof Stępień
!!!END: 2022-03-25
